/* XPM */
static char * aq2_xpm[] = {
"16 16 256 2",
"  	c None",
". 	c #000000",
"+ 	c #000080",
"@ 	c #2A0001",
"# 	c #290055",
"$ 	c #550100",
"% 	c #2A00AB",
"& 	c #2A00F7",
"* 	c #550155",
"= 	c #3600FC",
"- 	c #7F0000",
"; 	c #800100",
"> 	c #5600AA",
", 	c #2A1F01",
"' 	c #7F0055",
") 	c #5501FE",
"! 	c #800081",
"~ 	c #291F55",
"{ 	c #AA0000",
"] 	c #7F00AA",
"^ 	c #551F00",
"/ 	c #2920AA",
"( 	c #AA0055",
"_ 	c #7E02FF",
": 	c #551E55",
"< 	c #2B1EFF",
"[ 	c #AB00AA",
"} 	c #D40200",
"| 	c #7F1F00",
"1 	c #561EA9",
"2 	c #D40054",
"3 	c #AA00FF",
"4 	c #2A3F00",
"5 	c #801F55",
"6 	c #FF0000",
"7 	c #5520FE",
"8 	c #D400A9",
"9 	c #AA1E01",
"0 	c #2B3F54",
"a 	c #7F1EAA",
"b 	c #FF0055",
"c 	c #D302FF",
"d 	c #553F00",
"e 	c #2A3FAA",
"f 	c #7F1EFE",
"g 	c #AA2055",
"h 	c #FF00AA",
"i 	c #553F55",
"j 	c #2A3FFE",
"k 	c #D42000",
"l 	c #AA21AA",
"m 	c #FF00FE",
"n 	c #D41D54",
"o 	c #7F3F00",
"p 	c #563FAA",
"q 	c #AA20FF",
"r 	c #295F00",
"s 	c #7F3F55",
"t 	c #FF1F01",
"u 	c #D31FAA",
"v 	c #553FFF",
"w 	c #2A5F55",
"x 	c #FF1D55",
"y 	c #AA3F01",
"z 	c #803FAA",
"A 	c #D420FF",
"B 	c #565F00",
"C 	c #AA3E55",
"D 	c #2A5FAA",
"E 	c #FF1EA9",
"F 	c #7F3FFF",
"G 	c #007F00",
"H 	c #545F56",
"I 	c #D43F00",
"J 	c #A93FAA",
"K 	c #2C5FFF",
"L 	c #FF20FF",
"M 	c #7F5F00",
"N 	c #047F55",
"O 	c #555FAA",
"P 	c #D53F55",
"Q 	c #AA3FFF",
"R 	c #00807F",
"S 	c #2B7F00",
"T 	c #007FAA",
"U 	c #7F5F55",
"V 	c #555FFF",
"W 	c #D43FAA",
"X 	c #FF4001",
"Y 	c #2B7F55",
"Z 	c #7F5FAA",
"` 	c #AA6002",
" .	c #047FFF",
"..	c #FF4055",
"+.	c #D43FFF",
"@.	c #557F01",
"#.	c #2A7FAB",
"$.	c #A95F55",
"%.	c #FF3EAA",
"&.	c #7E5FFF",
"*.	c #009F00",
"=.	c #D45F00",
"-.	c #567F55",
";.	c #2A7FFF",
">.	c #AA5FAA",
",.	c #FF3EFE",
"'.	c #7F7F01",
").	c #D45E55",
"!.	c #00A056",
"~.	c #547FAA",
"{.	c #808000",
"].	c #AA5FFF",
"^.	c #299F01",
"/.	c #009FAB",
"(.	c #807F55",
"_.	c #FF5F00",
":.	c #D45EAA",
"<.	c #547FFF",
"[.	c #808080",
"}.	c #AA7E00",
"|.	c #2C9F56",
"1.	c #009FFF",
"2.	c #7F7FAA",
"3.	c #FE5F55",
"4.	c #D45FFF",
"5.	c #559F00",
"6.	c #299FAA",
"7.	c #AB7F55",
"8.	c #7F7FFF",
"9.	c #FF5FA9",
"0.	c #00BF00",
"a.	c #559E55",
"b.	c #D47F01",
"c.	c #2A9FFF",
"d.	c #A97FA9",
"e.	c #FF5FFF",
"f.	c #00BF56",
"g.	c #7F9F00",
"h.	c #559FAB",
"i.	c #D47F55",
"j.	c #AB7FFF",
"k.	c #28BF00",
"l.	c #7F9E54",
"m.	c #FF7E00",
"n.	c #00BFAB",
"o.	c #D47EA9",
"p.	c #539FFE",
"q.	c #27BF55",
"r.	c #AA9F01",
"s.	c #FE7E55",
"t.	c #01BFFF",
"u.	c #809FAA",
"v.	c #D37FFE",
"w.	c #54BF03",
"x.	c #AA9E55",
"y.	c #2CBFAA",
"z.	c #7F9FFF",
"A.	c #FF7FAB",
"B.	c #00DF00",
"C.	c #A0A0A4",
"D.	c #55BF55",
"E.	c #D49F00",
"F.	c #AA9FA9",
"G.	c #FF7EFE",
"H.	c #2EBFFF",
"I.	c #00DF55",
"J.	c #7FBF00",
"K.	c #56BEAA",
"L.	c #D49F55",
"M.	c #AA9FFF",
"N.	c #2CDF00",
"O.	c #FE9F00",
"P.	c #80BF55",
"Q.	c #05DFAA",
"R.	c #56BFFF",
"S.	c #D59FAA",
"T.	c #A9BF00",
"U.	c #2DDF54",
"V.	c #80BFAA",
"W.	c #FF9F55",
"X.	c #D49FFF",
"Y.	c #06DFFF",
"Z.	c #56DE00",
"`.	c #AABF55",
" +	c #2DDFA9",
".+	c #7EBFFF",
"++	c #FF9FA9",
"@+	c #55DF55",
"#+	c #D4BF00",
"$+	c #2BDFFF",
"%+	c #AABFAA",
"&+	c #0BFF01",
"*+	c #FF9FFF",
"=+	c #7EDF00",
"-+	c #54DFAA",
";+	c #D4BF55",
">+	c #AAC0FF",
",+	c #0EFF55",
"'+	c #27FF06",
")+	c #C0C0C0",
"!+	c #7EDF55",
"~+	c #FEBF02",
"{+	c #D4BFAA",
"]+	c #57DFFE",
"^+	c #09FFAA",
"/+	c #25FF55",
"(+	c #A6CAF0",
"_+	c #A9DF01",
":+	c #00FFFF",
"<+	c #80DFAA",
"[+	c #FFBF55",
"}+	c #D4BFFF",
"|+	c #56FE00",
"1+	c #28FFAB",
"2+	c #A9DF55",
"3+	c #7FDFFF",
"4+	c #FEBFAA",
"5+	c #CBCBFF",
"6+	c #53FF56",
"7+	c #D4DF00",
"8+	c #2AFFFF",
"9+	c #A9DFA9",
"0+	c #FEBFFE",
"a+	c #32FFFF",
"b+	c #7FFF00",
"c+	c #D4DE55",
"d+	c #BFDCC0",
"e+	c #57FFA9",
"f+	c #ABDFFF",
"g+	c #80FF54",
"h+	c #FFDF00",
"i+	c #54FFFF",
"j+	c #D4DFAA",
"k+	c #FECCFF",
"l+	c #7FFEA9",
"m+	c #ABFF00",
"n+	c #66FFFF",
"o+	c #FFDF55",
"p+	c #D3DFFE",
"q+	c #ABFF55",
"r+	c #FEDFAA",
"s+	c #80FFFF",
"t+	c #D4FF00",
"u+	c #A9FFA9",
"v+	c #FEDFFE",
"w+	c #98FFFF",
"x+	c #D3FF55",
"y+	c #A9FFFF",
"z+	c #FFFF00",
"A+	c #D4FEAA",
"B+	c #CCFFFF",
"C+	c #FFFE54",
"D+	c #D5FEFE",
"E+	c #FFFEAA",
"F+	c #FFFBF1",
"G+	c #FFFFFF",
"                                ",
"                                ",
"                                ",
"  G+G+G+G+G+G+G+G+G+G+G+G+G+G+  ",
"G+G+G+H G+G+S.$.C - P C y y P G+",
"G+G+[.G+. G+$.{ S.)+{+v+)+$.$.G+",
"G+. [.C.H [.S.S.F+G+G+F+G+S.- G+",
"G+[.G+G+G+H )+S.S.S.$.S.$.$.C G+",
"G+[.H [.H C.{+C y ; P $.C $.S.G+",
"G+C.G+G+)+[.$.| S.G+G+G+G+G+G+G+",
"G+C.G+i )+[.$.C ).; C $.C $.C G+",
"G+H [.[.i [.S.$.$.C $.C $.$.).G+",
"  G+G+G+G+G+G+G+G+G+G+G+G+G+G+  ",
"                                ",
"                                ",
"                                "};
