/* XPM */
static char * iourt_xpm[] = {
"16 16 257 2",
"  	c None",
". 	c #2E3C6A",
"+ 	c #115A92",
"@ 	c #115B92",
"# 	c #1673BD",
"$ 	c #D5D3CF",
"% 	c #254691",
"& 	c #264791",
"* 	c #6D7177",
"= 	c #6E7277",
"- 	c #D9D8D6",
"; 	c #29659F",
"> 	c #6B86A8",
", 	c #E0E0DF",
"' 	c #1675BF",
") 	c #878F98",
"! 	c #4C649A",
"~ 	c #1674BD",
"{ 	c #304B94",
"] 	c #34415F",
"^ 	c #C3C5C8",
"/ 	c #1165AE",
"( 	c #314B94",
"_ 	c #DAD7D3",
": 	c #CFCECD",
"< 	c #D8D5D1",
"[ 	c #C6CCD4",
"} 	c #7092B4",
"| 	c #A8AEB7",
"1 	c #224A95",
"2 	c #8BA2BA",
"3 	c #3C445A",
"4 	c #85878B",
"5 	c #D0D0D0",
"6 	c #3B4459",
"7 	c #3D475C",
"8 	c #D3D3D3",
"9 	c #D9D7D4",
"0 	c #2B5075",
"a 	c #9BA6B7",
"b 	c #2E4571",
"c 	c #626870",
"d 	c #2F3C6C",
"e 	c #0D69B8",
"f 	c #C3D1E2",
"g 	c #176CB5",
"h 	c #D8D8D8",
"i 	c #1964AC",
"j 	c #375598",
"k 	c #406DA6",
"l 	c #87898C",
"m 	c #1D4870",
"n 	c #3B4C7D",
"o 	c #194A99",
"p 	c #105D96",
"q 	c #576D98",
"r 	c #517CAB",
"s 	c #A3ADC3",
"t 	c #565A61",
"u 	c #4A6EA9",
"v 	c #204894",
"w 	c #87A7C7",
"x 	c #2A4C6D",
"y 	c #196DB5",
"z 	c #275182",
"A 	c #324160",
"B 	c #1B5079",
"C 	c #105FAB",
"D 	c #8DA0B5",
"E 	c #304271",
"F 	c #D1CFCC",
"G 	c #7F8286",
"H 	c #8A9DB0",
"I 	c #5F83B6",
"J 	c #B4B9BE",
"K 	c #819FBC",
"L 	c #2D4996",
"M 	c #BEBCBB",
"N 	c #4471A2",
"O 	c #2F3A61",
"P 	c #4A5666",
"Q 	c #90A0B4",
"R 	c #51565E",
"S 	c #D4D6D9",
"T 	c #CCD1D8",
"U 	c #26428E",
"V 	c #D9D8D7",
"W 	c #D5D1CE",
"X 	c #D1D0CE",
"Y 	c #6C85A7",
"Z 	c #D6D5D4",
"` 	c #2C4C94",
" .	c #2C4793",
"..	c #D2D0CD",
"+.	c #CECDCC",
"@.	c #D2D0CF",
"#.	c #3F4D5E",
"$.	c #56789F",
"%.	c #C4C9D2",
"&.	c #CCCCCD",
"*.	c #C7CACD",
"=.	c #1A73BF",
"-.	c #2D4892",
";.	c #CCCCCB",
">.	c #104691",
",.	c #CED0D3",
"'.	c #BDBEC1",
").	c #1B639D",
"!.	c #455A6F",
"~.	c #15508D",
"{.	c #313C63",
"].	c #9FA0A3",
"^.	c #5E7BAB",
"/.	c #3C4E62",
"(.	c #8EA9C6",
"_.	c #5C6168",
":.	c #1777C3",
"<.	c #ABB5CB",
"[.	c #2E3B69",
"}.	c #7A8899",
"|.	c #859AB3",
"1.	c #D6D4D1",
"2.	c #9C9D9E",
"3.	c #0D62AD",
"4.	c #425F9F",
"5.	c #D5D5D4",
"6.	c #CFD2DA",
"7.	c #DBDBDB",
"8.	c #2F447C",
"9.	c #DADAD9",
"0.	c #304A94",
"a.	c #75787D",
"b.	c #12559B",
"c.	c #464F5F",
"d.	c #9CA6B0",
"e.	c #80848A",
"f.	c #8FA8CC",
"g.	c #2D467D",
"h.	c #BBC2D1",
"i.	c #60656E",
"j.	c #D2D4D7",
"k.	c #E2DED7",
"l.	c #D2D3D4",
"m.	c #294869",
"n.	c #7194B1",
"o.	c #4B535F",
"p.	c #3E495C",
"q.	c #156AB3",
"r.	c #3A5C9E",
"s.	c #1A4F79",
"t.	c #1671B9",
"u.	c #B6BCC3",
"v.	c #DAD9D6",
"w.	c #294365",
"x.	c #3A517D",
"y.	c #DBDADA",
"z.	c #434B5A",
"A.	c #2C518E",
"B.	c #9BAAB9",
"C.	c #1674BE",
"D.	c #1267B8",
"E.	c #B5B3B4",
"F.	c #000000",
"G.	c #000000",
"H.	c #000000",
"I.	c #000000",
"J.	c #000000",
"K.	c #000000",
"L.	c #000000",
"M.	c #000000",
"N.	c #000000",
"O.	c #000000",
"P.	c #000000",
"Q.	c #000000",
"R.	c #000000",
"S.	c #000000",
"T.	c #000000",
"U.	c #000000",
"V.	c #000000",
"W.	c #000000",
"X.	c #000000",
"Y.	c #000000",
"Z.	c #000000",
"`.	c #000000",
" +	c #000000",
".+	c #000000",
"++	c #000000",
"@+	c #000000",
"#+	c #000000",
"$+	c #000000",
"%+	c #000000",
"&+	c #000000",
"*+	c #000000",
"=+	c #000000",
"-+	c #000000",
";+	c #000000",
">+	c #000000",
",+	c #000000",
"'+	c #000000",
")+	c #000000",
"!+	c #000000",
"~+	c #000000",
"{+	c #000000",
"]+	c #000000",
"^+	c #000000",
"/+	c #000000",
"(+	c #000000",
"_+	c #000000",
":+	c #000000",
"<+	c #000000",
"[+	c #000000",
"}+	c #000000",
"|+	c #000000",
"1+	c #000000",
"2+	c #000000",
"3+	c #000000",
"4+	c #000000",
"5+	c #000000",
"6+	c #000000",
"7+	c #000000",
"8+	c #000000",
"9+	c #000000",
"0+	c #000000",
"a+	c #000000",
"b+	c #000000",
"c+	c #000000",
"d+	c #000000",
"e+	c #000000",
"f+	c #000000",
"g+	c #000000",
"h+	c #000000",
"i+	c #000000",
"j+	c #000000",
"k+	c #000000",
"l+	c #000000",
"m+	c #000000",
"n+	c #000000",
"o+	c #000000",
"p+	c #000000",
"q+	c #000000",
"r+	c #000000",
"s+	c #000000",
"t+	c #000000",
"u+	c #000000",
"v+	c #000000",
"w+	c #000000",
"x+	c #000000",
"y+	c #000000",
"z+	c #000000",
"A+	c #000000",
"B+	c #000000",
"C+	c #000000",
"D+	c #000000",
"E+	c #000000",
"F+	c #000000",
"G+	c #000000",
"H+	c #000000",
"                                ",
"      6 3   O   {.d . . . . . [.",
"      E     n   U  .( 0.{ -.L 8.",
"      g.  ] <.'.s ! & ` % j 4.A ",
"    p.b   x.6.X k.q 1 v r.h.%.z.",
"* G | c.  ^.v.+.^ A.o u [ $ Z 2.",
"&.h , R 7 f.< 1.a >.I j...;.V a.",
"].5 y.t w.f W _ Y k S F : 7.i.  ",
"4 8 9.c z ) J *.> T Q - @.$.    ",
"= 5.9 }.r E.u.|.b.(.,.D N ~.    ",
"_.l.M 2 m.P w } C i K ; D.0     ",
"o.B.l H #.x e / y g 3.q.=./.    ",
"!.d.e.n.  ).:.C.# # ~ ' t.      ",
"s.    m   @ @ + + + + p B       ",
"                                ",
"                                "};
