/* XPM */
static char * nexuiz_xpm[] = {
"16 16 257 2",
"  	c None",
". 	c #000000",
"+ 	c #0F0F0F",
"@ 	c #1F1F1F",
"# 	c #2F2F2F",
"$ 	c #3F3F3F",
"% 	c #4B4B4B",
"& 	c #5B5B5B",
"* 	c #6B6B6B",
"= 	c #7B7B7B",
"- 	c #8B8B8B",
"; 	c #9B9B9B",
"> 	c #ABABAB",
", 	c #BBBBBB",
"' 	c #CBCBCB",
") 	c #DBDBDB",
"! 	c #EBEBEB",
"~ 	c #634B23",
"{ 	c #5B431F",
"] 	c #533F1F",
"^ 	c #4F3B1B",
"/ 	c #47371B",
"( 	c #3F2F17",
"_ 	c #3B2B17",
": 	c #332713",
"< 	c #2F2313",
"[ 	c #2B1F13",
"} 	c #271B0F",
"| 	c #23170F",
"1 	c #1B130B",
"2 	c #170F0B",
"3 	c #130F07",
"4 	c #0F0B07",
"5 	c #5F5F6F",
"6 	c #5B5B67",
"7 	c #5B535F",
"8 	c #574F5B",
"9 	c #534B53",
"0 	c #4F474B",
"a 	c #473F43",
"b 	c #3F3B3B",
"c 	c #3B3737",
"d 	c #332F2F",
"e 	c #2F2B2B",
"f 	c #272727",
"g 	c #232323",
"h 	c #1B1B1B",
"i 	c #171717",
"j 	c #131313",
"k 	c #8F7753",
"l 	c #7B6343",
"m 	c #735B3B",
"n 	c #674F2F",
"o 	c #CF974B",
"p 	c #A77B3B",
"q 	c #8B672F",
"r 	c #6F5327",
"s 	c #EB9F27",
"t 	c #CB8B23",
"u 	c #AF771F",
"v 	c #93631B",
"w 	c #774F17",
"x 	c #5B3B0F",
"y 	c #3F270B",
"z 	c #231707",
"A 	c #A73B2B",
"B 	c #9F2F23",
"C 	c #972B1B",
"D 	c #8B2713",
"E 	c #7F1F0F",
"F 	c #73170B",
"G 	c #671707",
"H 	c #571300",
"I 	c #4B0F00",
"J 	c #430F00",
"K 	c #3B0F00",
"L 	c #330B00",
"M 	c #2B0B00",
"N 	c #230B00",
"O 	c #1B0700",
"P 	c #130700",
"Q 	c #7B5F4B",
"R 	c #735743",
"S 	c #6B533F",
"T 	c #674F3B",
"U 	c #5F4737",
"V 	c #574333",
"W 	c #533F2F",
"X 	c #4B372B",
"Y 	c #433327",
"Z 	c #3F2F23",
"` 	c #37271B",
" .	c #2F2317",
"..	c #271B13",
"+.	c #1F170F",
"@.	c #170F0B",
"#.	c #0F0B07",
"$.	c #6F3B17",
"%.	c #5F3717",
"&.	c #532F17",
"*.	c #432B17",
"=.	c #372313",
"-.	c #271B0F",
";.	c #1B130B",
">.	c #0F0B07",
",.	c #B35B4F",
"'.	c #BF7B6F",
").	c #CB9B93",
"!.	c #D7BBB7",
"~.	c #CBD7DF",
"{.	c #B3C7D3",
"].	c #9FB7C3",
"^.	c #87A7B7",
"/.	c #7397A7",
"(.	c #5B879B",
"_.	c #47778B",
":.	c #2F677F",
"<.	c #17536F",
"[.	c #134B67",
"}.	c #0F435B",
"|.	c #0B3F53",
"1.	c #07374B",
"2.	c #072F3F",
"3.	c #072733",
"4.	c #001F2B",
"5.	c #00171F",
"6.	c #000F13",
"7.	c #00070B",
"8.	c #000000",
"9.	c #8B5757",
"0.	c #834F4F",
"a.	c #7B4747",
"b.	c #734343",
"c.	c #6B3B3B",
"d.	c #633333",
"e.	c #5B2F2F",
"f.	c #572B2B",
"g.	c #4B2323",
"h.	c #3F1F1F",
"i.	c #331B1B",
"j.	c #2B1313",
"k.	c #1F0F0F",
"l.	c #130B0B",
"m.	c #0B0707",
"n.	c #000000",
"o.	c #979F7B",
"p.	c #8F9773",
"q.	c #878B6B",
"r.	c #7F8363",
"s.	c #777B5F",
"t.	c #737357",
"u.	c #6B6B4F",
"v.	c #636347",
"w.	c #5B5B43",
"x.	c #4F4F3B",
"y.	c #434333",
"z.	c #37372B",
"A.	c #2F2F23",
"B.	c #23231B",
"C.	c #171713",
"D.	c #0F0F0B",
"E.	c #9F4B3F",
"F.	c #934337",
"G.	c #8B3B2F",
"H.	c #7F3727",
"I.	c #772F23",
"J.	c #6B2B1B",
"K.	c #632317",
"L.	c #571F13",
"M.	c #4F1B0F",
"N.	c #43170B",
"O.	c #37130B",
"P.	c #2B0F07",
"Q.	c #1F0B07",
"R.	c #170700",
"S.	c #0B0000",
"T.	c #000000",
"U.	c #777BCF",
"V.	c #6F73C3",
"W.	c #676BB7",
"X.	c #6363A7",
"Y.	c #5B5B9B",
"Z.	c #53578F",
"`.	c #4B4F7F",
" +	c #474773",
".+	c #3F3F67",
"++	c #373757",
"@+	c #2F2F4B",
"#+	c #27273F",
"$+	c #231F2F",
"%+	c #1B1723",
"&+	c #130F17",
"*+	c #0B0707",
"=+	c #9BAB7B",
"-+	c #8F9F6F",
";+	c #879763",
">+	c #7B8B57",
",+	c #73834B",
"'+	c #677743",
")+	c #5F6F3B",
"!+	c #576733",
"~+	c #4B5B27",
"{+	c #3F4F1B",
"]+	c #374313",
"^+	c #2F3B0B",
"/+	c #232F07",
"(+	c #1B2300",
"_+	c #131700",
":+	c #0B0F00",
"<+	c #00FF00",
"[+	c #23E70F",
"}+	c #3FD31B",
"|+	c #53BB27",
"1+	c #5FA72F",
"2+	c #5F8F33",
"3+	c #5F7B33",
"4+	c #FFFFFF",
"5+	c #FFFFD3",
"6+	c #FFFFA7",
"7+	c #FFFF7F",
"8+	c #FFFF53",
"9+	c #FFFF27",
"0+	c #FFEB1F",
"a+	c #FFD717",
"b+	c #FFBF0F",
"c+	c #FFAB07",
"d+	c #FF9300",
"e+	c #EF7F00",
"f+	c #E36B00",
"g+	c #D35700",
"h+	c #C74700",
"i+	c #B73B00",
"j+	c #AB2B00",
"k+	c #9B1F00",
"l+	c #8F1700",
"m+	c #7F0F00",
"n+	c #730700",
"o+	c #5F0000",
"p+	c #470000",
"q+	c #2F0000",
"r+	c #1B0000",
"s+	c #EF0000",
"t+	c #3737FF",
"u+	c #FF0000",
"v+	c #0000FF",
"w+	c #2B2B23",
"x+	c #1B1B17",
"y+	c #13130F",
"z+	c #EB977F",
"A+	c #C37353",
"B+	c #9F5733",
"C+	c #7B3F1B",
"D+	c #EBD3C7",
"E+	c #C7AB9B",
"F+	c #A78B77",
"G+	c #876B57",
"H+	c #9F5B53",
"                                ",
"          % % .                 ",
"            % % .               ",
"            % % % % % % % .     ",
"      % % % $ % $ % $ % % .     ",
"    % % % $ % % % . % % % .     ",
"          % % .     % % .       ",
"          % % .     % $ .       ",
"          % .       % % .       ",
"        % % .       % % .       ",
"        % .       % % .         ",
"      % % .       % % .         ",
"    % % .         % .           ",
"                % % .           ",
"                % .             ",
"                                "};
