/* XPM */
static char * q_xpm[] = {
"17 17 7 1",
" 	c None",
".	c #603000",
"+	c #3600FC",
"@	c #2323BF",
"#	c #2B7F00",
"$	c #295F00",
"%	c #AA3F01",
"                 ",
"    . +++@@ .    ",
"   .@+++###@@.   ",
"  . +++###### .  ",
" . @++#++#+##$ . ",
" . ++++#++++#$ . ",
" . #++#######$ . ",
" . @@+#%%%###$ . ",
" .. @###%###$ .. ",
"  .%@@##%###$%.  ",
"   .%%@$%$$%%.   ",
"    ..%%%%%..    ",
"      .....      ",
"        .        ",
"        .        ",
"        .        ",
"                 "};
