/* XPM */
static char * rexuiz_xpm[] = {
"16 16 82 1",
" 	c None",
".	c #112233",
"+	c #112222",
"@	c #111122",
"#	c #334444",
"$	c #99AABB",
"%	c #445566",
"&	c #111111",
"*	c #112211",
"=	c #113344",
"-	c #BBDDDD",
";	c #CCEEEE",
">	c #224455",
",	c #113333",
"'	c #114444",
")	c #557788",
"!	c #DDEEEE",
"~	c #EEEEFF",
"{	c #DDEEFF",
"]	c #CCDDDD",
"^	c #556677",
"/	c #223344",
"(	c #99BBCC",
"_	c #EEFFFF",
":	c #DDFFFF",
"<	c #88AAAA",
"[	c #002233",
"}	c #AACCDD",
"|	c #558888",
"1	c #446688",
"2	c #112244",
"3	c #225566",
"4	c #225577",
"5	c #114455",
"6	c #7799AA",
"7	c #113355",
"8	c #003344",
"9	c #6699AA",
"0	c #7799BB",
"a	c #BBCCDD",
"b	c #004466",
"c	c #AABBCC",
"d	c #77AACC",
"e	c #336688",
"f	c #114466",
"g	c #004455",
"h	c #115588",
"i	c #227799",
"j	c #5588AA",
"k	c #115577",
"l	c #005577",
"m	c #77AABB",
"n	c #88BBCC",
"o	c #116699",
"p	c #6699BB",
"q	c #99CCDD",
"r	c #005566",
"s	c #005588",
"t	c #2277AA",
"u	c #AADDEE",
"v	c #1177AA",
"w	c #006699",
"x	c #0077AA",
"y	c #BBDDEE",
"z	c #006688",
"A	c #2277BB",
"B	c #1177BB",
"C	c #0077BB",
"D	c #3388BB",
"E	c #BBEEEE",
"F	c #116688",
"G	c #4499BB",
"H	c #66AACC",
"I	c #0088CC",
"J	c #0088BB",
"K	c #3388CC",
"L	c #99CCEE",
"M	c #0066AA",
"N	c #0088DD",
"O	c #1199DD",
"P	c #0099DD",
"Q	c #0099EE",
"     .+++..     ",
"   .@@#$%@&+.   ",
"  .@*@=-;>>>,.  ",
" .++.')!~;{{]^= ",
" .+/(!{__~:_~<. ",
",.[,^(:~}|1{:).=",
"=[,2=3{!456_]7.=",
"===8=9~-0a{;)8=8",
"7875bc_d{_(ef77=",
"gfbfh;{i-:jkbbfg",
"fbklm{nop{qhlkrf",
" kst;uvwxy{tzhs ",
" hoq}AxBCDEqvwF ",
"  GHBCIJIIKLDM  ",
"   CIIINNIIIC   ",
"     OPOQOP     "};
